X: 529
T: Over the Muir Sherran
R: reel
B: "Preston's Twenty Four Country Dances for the Year 1804", Tho. Preston, ed. p.225
F: http://imslp.org/wiki/24_Country_Dances_for_the_Year_1804_(Preston_(publisher),_Thomas)
N: Some strains have pickup notes, some don't, and the rhythm is thus incorrect at strain ends. (Not fixed.)
M: C|
L: 1/8
K: F
f |\
Tc2Fc AFcA | cdcA G/G/G Gf | Tc2Fc AF-Ff | (a/g/).f/.e/ fc A/A/A A :|
|:\
fgag fd-df | cFcA G/G/G TG2 | fgag fd-df | cAfc A/A/A A2 ::
f |\
cFcA cF-Ff | cFcA G/G/G Gf | cFcA cF-Ff | (a/g/).f/.e/ f>c A/A/A A2 :|
|:\
FcAc FcAc | fdcA G/G/G G2 | FcAc FcAc | a/g/f/e/ fc A/A/A A2 :|
% - - - - - - - - - - - - - - - - - - - - - - - - -
%%begintext align
%% 1st & 2d Cu. set and change sides, back again, hands
%% across back again, lead down the middle up again,
%% turn your Partner & hands 4 round.
%%endtext

%%sep 1 1 500
